images/invite-card/food.svg

<svg width="74" height="70" viewBox="0 0 74 70" fill="none" xmlns="http://www.w3.org/2000/svg">
<path d="M70.0757 46.7H4.1103C1.80452 46.7 0 48.6 0 51V54.5C0 56.9 1.90477 58.8 4.1103 58.8H5.01257V59.9C5.01257 65.4 9.32337 70 14.6367 70H59.3488C64.6621 70 68.9729 65.5 68.9729 59.9V58.8H69.8752C72.181 58.8 73.9855 56.9 73.9855 54.5V51C74.186 48.7 72.2812 46.7 70.0757 46.7ZM66.1659 59.9C66.1659 63.8 63.1583 66.9 59.449 66.9H14.6367C10.9274 66.9 7.91985 63.7 7.91985 59.9V58.8H66.1659V59.9ZM71.2787 54.5C71.2787 55.2 70.6772 55.8 70.0757 55.8H4.01005C3.30829 55.8 2.80704 55.2 2.80704 54.5V51C2.80704 50.3 3.40855 49.7 4.01005 49.7H69.9754C70.6772 49.7 71.1784 50.3 71.1784 51C71.2787 51 71.2787 54.5 71.2787 54.5Z" fill="#83B3D3"/>
<path d="M15.6392 38.4L21.0528 42.5L26.3661 38.4L31.6794 42.5L36.9927 38.4L42.4063 42.5L47.7196 38.4L53.0329 42.5L58.4465 38.4L63.7598 42.5L69.9754 37.8L68.2711 35.3L63.7598 38.7L58.4465 34.6L53.0329 38.7L47.7196 34.6L42.4063 38.7L36.9927 34.6L31.6794 38.7L26.3661 34.6L21.0528 38.7L15.6392 34.6L10.3259 38.7L5.81458 35.3L4.1103 37.8L10.3259 42.5L15.6392 38.4Z" fill="#83B3D3"/>
<path d="M8.02011 31.5H68.9729C68.9729 30.9 69.0732 30.3 69.0732 29.6C69.0732 29.2 69.0732 28.8 69.0732 28.4C68.3714 12.7 54.3362 0 37.093 0C19.7495 0 5.71432 12.7 5.01257 28.5C5.01257 28.9 5.01257 29.3 5.01257 29.7C5.01257 30.3 5.00815 30.9 5.1084 31.5H8.02011ZM37.093 3C52.7322 3 65.5644 14.3 66.1659 28.5H8.02011C8.62161 14.4 21.4538 3 37.093 3Z" fill="#83B3D3"/>
<path d="M37.093 17.3C38.145 17.3 38.9978 16.4046 38.9978 15.3C38.9978 14.1954 38.145 13.3 37.093 13.3C36.041 13.3 35.1882 14.1954 35.1882 15.3C35.1882 16.4046 36.041 17.3 37.093 17.3Z" fill="#83B3D3"/>
<path d="M29.2734 12.2C30.3254 12.2 31.1782 11.3046 31.1782 10.2C31.1782 9.09543 30.3254 8.2 29.2734 8.2C28.2214 8.2 27.3686 9.09543 27.3686 10.2C27.3686 11.3046 28.2214 12.2 29.2734 12.2Z" fill="#83B3D3"/>
<path d="M44.8123 12.2C45.8643 12.2 46.7171 11.3046 46.7171 10.2C46.7171 9.09543 45.8643 8.2 44.8123 8.2C43.7604 8.2 42.9076 9.09543 42.9076 10.2C42.9076 11.3046 43.7604 12.2 44.8123 12.2Z" fill="#83B3D3"/>
</svg>

<svg xmlns="http://www.w3.org/2000/svg" width="74" height="70" fill="none" viewBox="0 0 74 70"><path fill="#83b3d3" d="M70.0757 46.7H4.1103C1.80452 46.7 0 48.6 0 51v3.5c0 2.4 1.90477 4.3 4.1103 4.3h.90227v1.1c0 5.5 4.3108 10.1 9.62413 10.1h44.7121c5.3133 0 9.6241-4.5 9.6241-10.1v-1.1h.9023c2.3058 0 4.1103-1.9 4.1103-4.3V51c.2005-2.3-1.7043-4.3-3.9098-4.3m-3.9098 13.2c0 3.9-3.0076 7-6.7169 7H14.6367c-3.7093 0-6.71685-3.2-6.71685-7v-1.1H66.1659zm5.1128-5.4c0 .7-.6015 1.3-1.203 1.3H4.01005c-.70176 0-1.20301-.6-1.20301-1.3V51c0-.7.60151-1.3 1.20301-1.3H69.9754c.7018 0 1.203.6 1.203 1.3.1003 0 .1003 3.5.1003 3.5M15.6392 38.4l5.4136 4.1 5.3133-4.1 5.3133 4.1 5.3133-4.1 5.4136 4.1 5.3133-4.1 5.3133 4.1 5.4136-4.1 5.3133 4.1 6.2156-4.7-1.7043-2.5-4.5113 3.4-5.3133-4.1-5.4136 4.1-5.3133-4.1-5.3133 4.1-5.4136-4.1-5.3133 4.1-5.3133-4.1-5.3133 4.1-5.4136-4.1-5.3133 4.1-4.51132-3.4-1.70428 2.5 6.2156 4.7zM8.02011 31.5H68.9729c0-.6.1003-1.2.1003-1.9v-1.2C68.3714 12.7 54.3362 0 37.093 0 19.7495 0 5.71432 12.7 5.01257 28.5v1.2c0 .6-.00442 1.2.09583 1.8zM37.093 3c15.6392 0 28.4714 11.3 29.0729 25.5H8.02011C8.62161 14.4 21.4538 3 37.093 3"/><path fill="#83b3d3" d="M37.093 17.3c1.052 0 1.9048-.8954 1.9048-2s-.8528-2-1.9048-2-1.9048.8954-1.9048 2 .8528 2 1.9048 2M29.2734 12.2c1.052 0 1.9048-.8954 1.9048-2 0-1.10457-.8528-2-1.9048-2s-1.9048.89543-1.9048 2c0 1.1046.8528 2 1.9048 2M44.8123 12.2c1.052 0 1.9048-.8954 1.9048-2 0-1.10457-.8528-2-1.9048-2-1.0519 0-1.9047.89543-1.9047 2 0 1.1046.8528 2 1.9047 2"/></svg>
